assets/images/script/l-2-top.svg

<svg fill="none" height="243" viewBox="0 0 351 243" width="351" xmlns="http://www.w3.org/2000/svg"><path d="m86.1398 134.117c-10.4499 1.742-8.2653 6.103-.3384 11.337 21.5226 14.214 53.3256 9.448 75.2976-1.015 21.637-10.303 29.371-34.48 8.122-49.5777-24.47-17.3865-62.649-13.9446-90.3571-8.7988-24.6192 4.5721-49.4732 14.8545-74.3667 17.3435-3.32708.333 2.18602-3.12 2.19969-3.13 9.99721-7.0949 20.27651-13.7774 30.54201-20.4742 38.9103-25.3835 79.0271-48.4504 122.9291-64.1296 25.11-8.96771 53.949-18.33132 79.951-6.93752 19.263 8.44132 36.106 26.66792 31.303 48.81632-2.582 11.9054-7.908 23.4522-13.198 34.3492-4.991 10.2808-27.273 31.8318-28.214 43.5878-.493 6.172 4.065 8.402 9.138 10.152 10.122 3.494 20.221 5.672 28.934 12.352 17.291 13.257 8.963 37.707 2.031 54.485-1.994 4.825-10.633 29.148-18.444 27.412-12.483-2.774-5.702-19.709-1.523-26.396 17.382-27.811 46.638-53.282 75.213-68.868 6.351-3.464 14.804-8.438 22.251-9.222 1.146-.12-2.345 4.87-2.877 5.669" stroke="#000" stroke-linecap="round" stroke-width="5"/></svg>

<svg width="351" height="243" viewBox="0 0 351 243" fill="none" xmlns="http://www.w3.org/2000/svg">
<path d="M86.1398 134.117C75.6899 135.859 77.8745 140.22 85.8014 145.454C107.324 159.668 139.127 154.902 161.099 144.439C182.736 134.136 190.47 109.959 169.221 94.8613C144.751 77.4748 106.572 80.9167 78.8639 86.0625C54.2447 90.6346 29.3907 100.917 4.4972 103.406C1.17012 103.739 6.68322 100.286 6.69689 100.276C16.6941 93.1811 26.9734 86.4986 37.2389 79.8018C76.1492 54.4183 116.266 31.3514 160.168 15.6722C185.278 6.70449 214.117 -2.65912 240.119 8.73468C259.382 17.176 276.225 35.4026 271.422 57.551C268.84 69.4564 263.514 81.0032 258.224 91.9002C253.233 102.181 230.951 123.732 230.01 135.488C229.517 141.66 234.075 143.89 239.148 145.64C249.27 149.134 259.369 151.312 268.082 157.992C285.373 171.249 277.045 195.699 270.113 212.477C268.119 217.302 259.48 241.625 251.669 239.889C239.186 237.115 245.967 220.18 250.146 213.493C267.528 185.682 296.784 160.211 325.359 144.625C331.71 141.161 340.163 136.187 347.61 135.403C348.756 135.283 345.265 140.273 344.733 141.072" stroke="black" stroke-width="5" stroke-linecap="round"/>
</svg>
